src/next/cmd/sc_diagramdata.svg

<svg height="16" viewBox="0 0 4.2333333 4.2333335" width="16" xmlns="http://www.w3.org/2000/svg" xmlns:xlink="http://www.w3.org/1999/xlink"><linearGradient id="a" gradientUnits="userSpaceOnUse" x1="6.916846" x2="8.408372" xlink:href="#b" y1="21.974255" y2="-6.00001"/><linearGradient id="b" gradientUnits="userSpaceOnUse" x1="6.916846" x2="8.408372" y1="21.974257" y2="-6.000008"><stop offset="0"/><stop offset="1" stop-color="#fff"/></linearGradient><linearGradient id="c" gradientTransform="matrix(.28494299 0 0 .34511728 .597009 263.04019)" gradientUnits="userSpaceOnUse" x1="46.048" x2="46.048" y1="128.01709" y2="16.6203"><stop offset="0" stop-color="#c7cdd7"/><stop offset="1" stop-color="#fff"/></linearGradient><g transform="matrix(.125 0 0 .125 0 -32.627083)"><path d="m2.116667 265.25h29.633333v27.64507h-29.633333z" fill="url(#c)"/><path d="m0 2v.5878906 2.4121094.5 2.5.5 2.5.5 3.013672.486328h1 4 1 4 1 4 1v-.486328-12.513672h-15zm1 .5878906h4v2.4121094h-4zm5 0h4v2.4121094h-4zm5 0h4v2.4121094h-4zm-10 2.9121094h4v2.5h-4zm5 0h4v2.5h-4zm5 0h4v2.5h-4zm-10 3h4v2.5h-4zm5 0h4v2.5h-4zm5 0h4v2.5h-4zm-10 3h4v3.013672h-4zm5 0h4v3.013672h-4zm5 0h4v3.013672h-4z" fill="url(#b)" stroke-width=".472441" transform="matrix(2.1166667 0 0 2.1166667 0 261.01666)"/><path d="m0 2v.5878906 2.4121094.5 2.5.5 2.5.5 3.013672.486328h1 4 1v-.486328-3.013672-.5-2.5-.5-2.5h4 1 4 1v-3.5h-15zm1 .5878906h4v2.4121094h-4zm5 0h4v2.4121094h-4zm5 0h4v2.4121094h-4zm-10 2.9121094h4v2.5h-4zm0 3h4v2.5h-4zm0 3h4v3.013672h-4z" fill="url(#a)" transform="matrix(2.1166667 0 0 2.1166667 0 261.01666)"/></g></svg>

<?xml version="1.0" encoding="UTF-8" standalone="no"?>
<svg
   xmlns:dc="http://purl.org/dc/elements/1.1/"
   xmlns:cc="http://creativecommons.org/ns#"
   xmlns:rdf="http://www.w3.org/1999/02/22-rdf-syntax-ns#"
   xmlns:svg="http://www.w3.org/2000/svg"
   xmlns="http://www.w3.org/2000/svg"
   xmlns:xlink="http://www.w3.org/1999/xlink"
   xmlns:sodipodi="http://sodipodi.sourceforge.net/DTD/sodipodi-0.dtd"
   xmlns:inkscape="http://www.inkscape.org/namespaces/inkscape"
   height="16"
   viewBox="0 0 4.2333333 4.2333335"
   width="16"
   version="1.1"
   id="svg29"
   sodipodi:docname="sc_diagramdata.svg"
   inkscape:version="0.92.4 (unknown)"
   inkscape:export-filename="/home/rizmut/Dokumen/Rizmut/Github/libreoffice-style-karasa-jaga/build/next/cmd/sc_diagramdata.png"
   inkscape:export-xdpi="96"
   inkscape:export-ydpi="96">
  <metadata
     id="metadata35">
    <rdf:RDF>
      <cc:Work
         rdf:about="">
        <dc:format>image/svg+xml</dc:format>
        <dc:type
           rdf:resource="http://purl.org/dc/dcmitype/StillImage" />
        <dc:title></dc:title>
      </cc:Work>
    </rdf:RDF>
  </metadata>
  <defs
     id="defs33">
    <linearGradient
       inkscape:collect="always"
       xlink:href="#b"
       id="linearGradient43"
       gradientUnits="userSpaceOnUse"
       x1="6.9168463"
       y1="21.974257"
       x2="8.408372"
       y2="-6.000008"
       gradientTransform="translate(0,-1.8897637e-6)" />
  </defs>
  <sodipodi:namedview
     pagecolor="#ffffff"
     bordercolor="#666666"
     borderopacity="1"
     objecttolerance="10"
     gridtolerance="10"
     guidetolerance="10"
     inkscape:pageopacity="0"
     inkscape:pageshadow="2"
     inkscape:window-width="1366"
     inkscape:window-height="714"
     id="namedview31"
     showgrid="true"
     inkscape:zoom="14.75"
     inkscape:cx="3.7048889"
     inkscape:cy="9.5139457"
     inkscape:window-x="0"
     inkscape:window-y="28"
     inkscape:window-maximized="1"
     inkscape:current-layer="svg29">
    <inkscape:grid
       type="xygrid"
       id="grid37" />
  </sodipodi:namedview>
  <radialGradient
     id="a"
     cx="-32"
     cy="9.6"
     gradientTransform="matrix(.11920158 .11920158 -.59600795 .59600795 13.01637 -1.457733)"
     gradientUnits="userSpaceOnUse"
     r="5.6">
    <stop
       offset="0"
       stop-color="#a50606"
       id="stop2" />
    <stop
       offset="1"
       stop-color="#f20909"
       id="stop4" />
  </radialGradient>
  <linearGradient
     id="b"
     gradientUnits="userSpaceOnUse"
     x1="6.9168463"
     x2="8.408372"
     y1="21.974257"
     y2="-6.000008">
    <stop
       offset="0"
       id="stop7" />
    <stop
       offset="1"
       stop-color="#fff"
       id="stop9" />
  </linearGradient>
  <linearGradient
     id="c"
     gradientTransform="matrix(.28494299 0 0 .34511728 .597009 263.04019)"
     gradientUnits="userSpaceOnUse"
     x1="46.048"
     x2="46.048"
     y1="128.01709"
     y2="16.6203">
    <stop
       offset="0"
       stop-color="#c7cdd7"
       id="stop12" />
    <stop
       offset="1"
       stop-color="#fff"
       id="stop14" />
  </linearGradient>
  <g
     transform="matrix(.125 0 0 .125 0 -32.627083)"
     id="g21">
    <path
       d="m2.116667 265.25h29.633333v27.64507h-29.633333z"
       fill="url(#c)"
       id="path17" />
    <path
       d="m0 2v.5878906 2.4121094.5 2.5.5 2.5.5 3.013672.486328h1 4 1 4 1 4 1v-.486328-12.513672h-15zm1 .5878906h4v2.4121094h-4zm5 0h4v2.4121094h-4zm5 0h4v2.4121094h-4zm-10 2.9121094h4v2.5h-4zm5 0h4v2.5h-4zm5 0h4v2.5h-4zm-10 3h4v2.5h-4zm5 0h4v2.5h-4zm5 0h4v2.5h-4zm-10 3h4v3.013672h-4zm5 0h4v3.013672h-4zm5 0h4v3.013672h-4z"
       fill="url(#b)"
       stroke-width=".472441"
       transform="matrix(2.1166667 0 0 2.1166667 0 261.01666)"
       id="path19"
       style="fill:#d2d2d2;fill-opacity:1" />
    <path
       style="fill:url(#linearGradient43)"
       d="M 0 2 L 0 2.5878906 L 0 5 L 0 5.5 L 0 8 L 0 8.5 L 0 11 L 0 11.5 L 0 14.513672 L 0 15 L 1 15 L 5 15 L 6 15 L 6 14.513672 L 6 11.5 L 6 11 L 6 8.5 L 6 8 L 6 5.5 L 10 5.5 L 11 5.5 L 15 5.5 L 16 5.5 L 16 2 L 1 2 L 0 2 z M 1 2.5878906 L 5 2.5878906 L 5 5 L 1 5 L 1 2.5878906 z M 6 2.5878906 L 10 2.5878906 L 10 5 L 6 5 L 6 2.5878906 z M 11 2.5878906 L 15 2.5878906 L 15 5 L 11 5 L 11 2.5878906 z M 1 5.5 L 5 5.5 L 5 8 L 1 8 L 1 5.5 z M 1 8.5 L 5 8.5 L 5 11 L 1 11 L 1 8.5 z M 1 11.5 L 5 11.5 L 5 14.513672 L 1 14.513672 L 1 11.5 z "
       transform="matrix(2.1166667,0,0,2.1166667,0,261.01666)"
       id="path39" />
  </g>
</svg>
